assets/img/braze_icons/right-indent-01.svg

<svg fill="none" height="24" viewBox="0 0 24 24" width="24" xmlns="http://www.w3.org/2000/svg"><g fill="#801ed7"><path d="m3 3c-.55228 0-1 .44772-1 1s.44772 1 1 1h18c.5523 0 1-.44772 1-1s-.4477-1-1-1z"/><path d="m3 19c-.55228 0-1 .4477-1 1s.44772 1 1 1h18c.5523 0 1-.4477 1-1s-.4477-1-1-1z"/><path d="m2 9.25c0-.55228.44772-1 1-1h9c.5523 0 1 .44772 1 1s-.4477 1-1 1h-9c-.55228 0-1-.44772-1-1z"/><path d="m3 13.75c-.55228 0-1 .4477-1 1s.44772 1 1 1h9c.5523 0 1-.4477 1-1s-.4477-1-1-1z"/><path d="m20.5311 7.00028c-.3882-.00807-.6913.16286-.851.26132-.1642.10126-.3509.24132-.5323.3774l-3.9171 2.9379c-.1246.0933-.2654.1989-.3783.3004-.1246.1121-.308.2982-.4171.5789-.1361.3498-.1361.7377 0 1.0875.1091.2807.2925.4669.4171.5789.1129.1015.2537.207.3782.3004l3.9172 2.9379c.1814.1361.3681.2761.5323.3774.1597.0985.4628.2694.851.2613.4501-.0093.8723-.2204 1.1499-.5749.2393-.3057.2845-.6508.3015-.8376.0175-.1921.0175-.4255.0174-.6522v-5.86985c.0001-.22675.0001-.46013-.0174-.65225-.017-.18682-.0622-.53191-.3015-.8376-.2776-.3545-.6998-.56557-1.1499-.57492z"/></g></svg>

<svg width="24" height="24" viewBox="0 0 24 24" fill="none" xmlns="http://www.w3.org/2000/svg">
<path d="M3 3C2.44772 3 2 3.44772 2 4C2 4.55228 2.44772 5 3 5H21C21.5523 5 22 4.55228 22 4C22 3.44772 21.5523 3 21 3H3Z" fill="#801ED7"/>
<path d="M3 19C2.44772 19 2 19.4477 2 20C2 20.5523 2.44772 21 3 21H21C21.5523 21 22 20.5523 22 20C22 19.4477 21.5523 19 21 19H3Z" fill="#801ED7"/>
<path d="M2 9.25C2 8.69772 2.44772 8.25 3 8.25H12C12.5523 8.25 13 8.69772 13 9.25C13 9.80228 12.5523 10.25 12 10.25H3C2.44772 10.25 2 9.80228 2 9.25Z" fill="#801ED7"/>
<path d="M3 13.75C2.44772 13.75 2 14.1977 2 14.75C2 15.3023 2.44772 15.75 3 15.75H12C12.5523 15.75 13 15.3023 13 14.75C13 14.1977 12.5523 13.75 12 13.75H3Z" fill="#801ED7"/>
<path d="M20.5311 7.00028C20.1429 6.99221 19.8398 7.16314 19.6801 7.2616C19.5159 7.36286 19.3292 7.50292 19.1478 7.639L15.2307 10.5769C15.1061 10.6702 14.9653 10.7758 14.8524 10.8773C14.7278 10.9894 14.5444 11.1755 14.4353 11.4562C14.2992 11.806 14.2992 12.1939 14.4353 12.5437C14.5444 12.8244 14.7278 13.0106 14.8524 13.1226C14.9653 13.2241 15.1061 13.3296 15.2306 13.423L19.1478 16.3609C19.3292 16.497 19.5159 16.637 19.6801 16.7383C19.8398 16.8368 20.1429 17.0077 20.5311 16.9996C20.9812 16.9903 21.4034 16.7792 21.681 16.4247C21.9203 16.119 21.9655 15.7739 21.9825 15.5871C22 15.395 22 15.1616 21.9999 14.9349V9.06505C22 8.8383 22 8.60492 21.9825 8.4128C21.9655 8.22598 21.9203 7.88089 21.681 7.5752C21.4034 7.2207 20.9812 7.00963 20.5311 7.00028Z" fill="#801ED7"/>
</svg>
